X: 13
T: Matt Molloy's
L: 1/8
R: reel
M: C|
K: D
dB|AF~F2 AFdF|AF~F2 ABFG|AF~F2 ABde|fdgf efdB|
AF~F2 AFdF|AF~F2 ABFG|AF~F2 ABde|fdgf e2de ||
fa~a2 fb~b2|faaf afde|fa~a2 fb~b2|afgf e2de|
fa~a2 fb~b2|faaf afde|dBAF ABde|f3f fedB ||

